modules/themify-icons/icons/envelope.svg

<?xml version="1.0" encoding="utf-8"?>
<!-- Generated by IcoMoon.io -->
<!DOCTYPE svg PUBLIC "-//W3C//DTD SVG 1.1//EN" "http://www.w3.org/Graphics/SVG/1.1/DTD/svg11.dtd">
<svg version="1.1" xmlns="http://www.w3.org/2000/svg" xmlns:xlink="http://www.w3.org/1999/xlink" width="17" height="17" viewBox="0 0 17 17">
<g>
</g>
	<path d="M2 0v17h13v-17h-13zM4.695 4l-1.408-3h10.426l-1.41 3h-7.608zM4.061 5h3.939v9h-4.002l-0.998 1.155v-12.414l1.061 2.259zM4.455 15h8.092l0.862 1h-9.816l0.862-1zM13.006 14h-4.006v-9h3.938l1.062-2.261v12.415l-0.994-1.154z" fill="#000000" />
</svg>

<svg xmlns="http://www.w3.org/2000/svg" width="17" height="17" viewBox="0 0 17 17"><path d="M2 0v17h13V0H2zm2.695 4L3.287 1h10.426l-1.41 3H4.695zm-.634 1H8v9H3.998L3 15.155V2.741L4.061 5zm.394 10h8.092l.862 1H3.593l.862-1zm8.551-1H9V5h3.938L14 2.739v12.415L13.006 14z"/></svg>
